X:60
T:Annie Twiss
B:Terry "Cuz" Teahan "Sliabh Luachra on Parade" 1980
Z:Patrick Cavanagh
M:2/4
L:1/8
R:Polka
K:A
| AA FE | FA B/c/d | eg/e/ dB | c/B/A FE | 
AA FE | FA B/c/d | eg/e/ dB | BA A2 :| 
| e2 ec/e/ | fe cA | Bc Bc | BA FE | 
e2 ec/e/ | fe cA | ce Bc | BA A2 :|| 

